X:1
T: The Abram Circle Dance
N:
C:
S:(Lancashire Tradition)
A:
O:
R:
M:4/4
K:G
I:speed 200
%W: A1                                                                      A2
% voice 1 (1 lines, 34 notes)
K:G
M:4/4
L:1/16
G4 B2 c2 d4 e2 f2 |g4 a4 b8 |g4 d4 d2 e2 d2 c2 |B8 G8 |G4 B2 c2 d4 e2 f2 |g4 a4 b8 |g4 d4 d2 e2 d2 c2 |B8 G8 |
%W: B1                                                                      B2
% voice 1 (1 lines, 32 notes)
e4 c4 e4 g2 e2 |d4 B4 d8 |A4 d4 d2 e2 d2 c2 |B8 G8 |e4 c4 e4 g2 e2 |d4 B4 d8 |A4 d4 d2 e2 d2 c2 |B8 G8 |
%W: C1                                                      C2
% voice 1 (1 lines, 34 notes)
M:6/8
L:1/16
d4 c2 B2 A2 G2 d4 c2 B2 A2 G2 e4 d2 c2 B2 c2 e6 g6 |d4 c2 B2 A2 G2 d4 c2 B2 A2 G2 e4 d2 c2 B2 c2 e6 g6 |
%W: D                                                       E
% voice 1 (1 lines, 23 notes)
e4 d2 c2 B2 c2 e6 g6 e4 d2 c2 B2 c2 e6 g6 |d4 e2 f4 g2 a4 g2 f2 e2 d2
%W:
% voice 1 (1 lines, 21 notes)
e4 g2 f4 a2 g6 g6 |d4 e2 f4 g2 a4 g2 f2 e2 d2 e4 g2 f4 a2 g6 g6 |
%W: F1
% voice 1 (1 lines, 32 notes)
M:4/4
L:1/16
G8 B4 B4 |d4 d4 g8 |d4 B4 d2 c2 A2 B2 |c4 A4 G2 F2 E2 D2 |G8 B4 B4 |d4 d4 g8 |d4 B4 d2 c2 A2 F2 |G8 G8 |
%W: F2
% voice 1 (1 lines, 32 notes)
G8 B4 B4 |d4 d4 g8 |d4 B4 d2 c2 A2 B2 |c4 A4 G2 F2 E2 D2 |G8 B4 B4 |d4 d4 g8 |d4 B4 d2 c2 A2 F2 |G8 G8 |
%W: G1
% voice 1 (1 lines, 35 notes)
B4 G4 B4 d4 |A8 d4 d2 c2 |B4 G4 B4 d4 |A8 A4 d2 c2 |B4 G4 B4 d4 |A8 d4 B2 c2 |d4 B2 c2 d2 c2 B2 A2 |G8 G4 d2 c2 |
%W: G2
% voice 1 (1 lines, 33 notes)
B4 G4 B4 d4 |A8 d4 d2 c2 |B4 G4 B4 d4 |A8 A4 d2 c2 |B4 G4 B4 d4 |A8 d4 B2 c2 |d4 B2 c2 d2 c2 B2 A2 |G8 G8 ||
